svg/transport/seat_heated_line.svg

<?xml version="1.0" encoding="UTF-8"?>
<svg width="24px" height="24px" viewBox="0 0 24 24" version="1.1" xmlns="http://www.w3.org/2000/svg" xmlns:xlink="http://www.w3.org/1999/xlink">
    <title>seat_heated_line</title>
    <g id="页面-1" stroke="none" stroke-width="1" fill="none" fill-rule="evenodd">
        <g id="Transport" transform="translate(-384.000000, -192.000000)">
            <g id="seat_heated_line" transform="translate(384.000000, 192.000000)">
                 <path d="M24,0 L24,24 L0,24 L0,0 L24,0 Z M12.5934901,23.257841 L12.5819402,23.2595131 L12.5108777,23.2950439 L12.4918791,23.2987469 L12.4918791,23.2987469 L12.4767152,23.2950439 L12.4056548,23.2595131 C12.3958229,23.2563662 12.3870493,23.2590235 12.3821421,23.2649074 L12.3780323,23.275831 L12.360941,23.7031097 L12.3658947,23.7234994 L12.3769048,23.7357139 L12.4804777,23.8096931 L12.4953491,23.8136134 L12.4953491,23.8136134 L12.5071152,23.8096931 L12.6106902,23.7357139 L12.6232938,23.7196733 L12.6232938,23.7196733 L12.6266527,23.7031097 L12.609561,23.275831 C12.6075724,23.2657013 12.6010112,23.2592993 12.5934901,23.257841 L12.5934901,23.257841 Z M12.8583906,23.1452862 L12.8445485,23.1473072 L12.6598443,23.2396597 L12.6498822,23.2499052 L12.6498822,23.2499052 L12.6471943,23.2611114 L12.6650943,23.6906389 L12.6699349,23.7034178 L12.6699349,23.7034178 L12.678386,23.7104931 L12.8793402,23.8032389 C12.8914285,23.8068999 12.9022333,23.8029875 12.9078286,23.7952264 L12.9118235,23.7811639 L12.8776777,23.1665331 C12.8752882,23.1545897 12.8674102,23.1470016 12.8583906,23.1452862 L12.8583906,23.1452862 Z M12.1430473,23.1473072 C12.1332178,23.1423925 12.1221763,23.1452606 12.1156365,23.1525954 L12.1099173,23.1665331 L12.0757714,23.7811639 C12.0751323,23.7926639 12.0828099,23.8018602 12.0926481,23.8045676 L12.108256,23.8032389 L12.3092106,23.7104931 L12.3186497,23.7024347 L12.3186497,23.7024347 L12.3225043,23.6906389 L12.340401,23.2611114 L12.337245,23.2485176 L12.337245,23.2485176 L12.3277531,23.2396597 L12.1430473,23.1473072 Z" id="MingCute" fill-rule="nonzero"></path>
                <path d="M6.27168,15.304 C7.48565,15.4557 8.86034,15.6843 10.2425,16.0299 C12.3707828,16.5619552 14.2190232,17.6118325 15.5397277,18.5321509 L15.9600847,18.8332372 L15.9600847,18.8332372 L16.339328,19.1193984 L16.339328,19.1193984 L16.6754206,19.3853061 L16.6754206,19.3853061 L16.9663255,19.6256321 L16.9663255,19.6256321 L17.3135,19.9265 L17.3135,19.9265 C18.1892,20.7072 17.5373,22 16.5171,22 L7.92246,22 C6.40355,22 4.96698,21.3096 4.01812,20.1235 C3.236,19.1458 2.85701,17.929 3.46807,16.7451 C3.96253,15.7871 5.00693,15.1459 6.27168,15.304 Z M5.2453,17.6624 C5.066095,18.009575 5.18617375,18.3204125 5.37569875,18.602 L5.50981486,18.7854694 C5.53304153,18.8153514 5.556495,18.8448917 5.57986,18.8741 C6.14917,19.5857 7.01111,20 7.92246,20 L14.1432,20 C12.9928,19.2272 11.4665,18.3974 9.75743,17.9701 C8.47258,17.6489 7.18027,17.4331 6.02364,17.2885 C5.62432,17.2386 5.37082,17.4192 5.2453,17.6624 Z M18.9998,2 C19.6202,2 20.0738,2.33779 20.3607,2.70373 C20.6332,3.0514 20.8098,3.48403 20.9331,3.90041 C21.1825,4.74279 21.3004,5.82735 21.3448,6.90866 C21.3775895,7.70628053 21.371654,8.54485202 21.3380002,9.34477438 L21.3026227,10.0191005 C21.2748545,10.4598657 21.2390623,10.8805846 21.1972998,11.2664046 L21.1304349,11.8171039 C21.0832155,12.1643119 21.0310526,12.4691947 20.976,12.7169 C20.4431,15.1152 19.5103,16.5645 18.4676,17.3542 C17.4693,18.1103 16.3112,18.2737 15.5526,17.8944 C15.2219,17.7291 14.9004,17.4323 14.6351,17.1238 C14.3522,16.7947 14.0665,16.3746 13.8334,15.8865 C13.368,14.9122 13.081,13.594 13.5511,12.1838 C13.8420077,11.3110769 14.4026237,10.7670586 14.8965327,10.3595163 L15.1573,10.1496 C15.7328,9.6922 16.2708,9.22193 16.6054,8.55279 C16.81778,8.128044 16.823184,7.5721985 16.8035392,7.04968427 L16.7848096,6.61381281 L16.7848096,6.61381281 L16.7667151,5.84877514 C16.7491512,4.99975835 16.7552727,4.12201364 17.0706,3.33768 C17.3961,2.52776 18.1168,2 18.9998,2 Z M18.7696,5.40521 C18.7628,6.07218 18.7968,6.739 18.7807,7.40596 C18.7653,8.04782 18.7048,8.82621 18.3943,9.44721 C17.9393,10.3571 17.2467,11.0428 16.461,11.6683 L16.2919719,11.8038782 L16.2919719,11.8038782 L16.0071273,12.0435694 C15.71352,12.304605 15.54916,12.51422 15.4485,12.8162 C15.2071417,13.540275 15.3082806,14.2496451 15.5645137,14.8604297 L15.7073967,15.168262 L15.7073967,15.168262 L15.8087574,15.3666548 C15.9808266,15.6894321 16.2339769,16.0900391 16.4461,16.089004 L16.5211464,16.0860418 C16.653988,16.075004 16.91442,16.02174 17.2601,15.7599 C17.3348273,15.7033091 17.4132829,15.636582 17.4942448,15.5582063 L17.6591484,15.385475 C18.1337921,14.849524 18.6627591,13.9071409 19.0237,12.2831 C19.06624,12.0916 19.108048,11.847068 19.1470408,11.5619646 L19.2031582,11.1054387 C19.2209866,10.9441589 19.2378508,10.7742938 19.2534904,10.5974011 L19.296475,10.0471975 L19.296475,10.0471975 L19.3305496,9.46417328 L19.3305496,9.46417328 L19.3541518,8.85767394 C19.371997,8.2425522 19.37179,7.606236 19.3465,6.99078 C19.3043,5.96385 19.1946,5.07355 19.0154,4.46813 C18.92855,4.17483875 18.8726375,4.19816609 18.8365355,4.35506469 L18.8152804,4.47744333 L18.8152804,4.47744333 L18.7928008,4.70885271 L18.7928008,4.70885271 L18.7726269,5.19475083 L18.7726269,5.19475083 L18.7696,5.40521 L18.7696,5.40521 Z M5.2191,3.3753 C5.56411,2.94404 6.1934,2.87412 6.62466,3.21913 C7.02274615,3.53760077 7.11294497,4.09829828 6.85310646,4.52188053 L6.78083,4.6247 L6.54774,4.91606 C5.89834944,5.72780056 5.92347954,6.87809926 6.58393242,7.65905279 L6.70707,7.79289 C8.15429345,9.24011345 8.32740037,11.5145827 7.14572578,13.1595308 L7.01393,13.3333 L6.78083,13.6247 C6.43582,14.056 5.80653,14.1259 5.37527,13.7809 C4.97718385,13.4624385 4.88698503,12.9017331 5.14682354,12.478126 L5.2191,12.3753 L5.45219,12.0839 C6.10158056,11.2722444 6.07645046,10.1219059 5.41599758,9.34094764 L5.29286,9.20711 C3.84563655,7.75988655 3.67252963,5.48545454 4.85420422,3.84044605 L4.986,3.66667 L5.2191,3.3753 Z M9.2191,3.3753 C9.56411,2.94404 10.1934,2.87412 10.6247,3.21913 C11.0227308,3.53760077 11.1129083,4.09829828 10.8530747,4.52188053 L10.7808,4.6247 L10.5477,4.91606 C9.89834722,5.72780056 9.92347941,6.87809926 10.5839577,7.65905279 L10.7071,7.79289 C12.1543138,9.24011345 12.3273644,11.5145827 11.145695,13.1595308 L11.0139,13.3333 L10.7808,13.6247 C10.4358,14.056 9.80653,14.1259 9.37527,13.7809 C8.97718385,13.4624385 8.88698503,12.9017331 9.14682354,12.478126 L9.2191,12.3753 L9.45219,12.0839 C10.1015994,11.2722444 10.0764882,10.1219059 9.4160037,9.34094764 L9.29286,9.20711 C7.84563655,7.75988655 7.67252963,5.48545454 8.85420422,3.84044605 L8.986,3.66667 L9.2191,3.3753 Z" id="形状" fill="#09244B"></path>
            </g>
        </g>
    </g>
</svg>

<svg xmlns="http://www.w3.org/2000/svg" width="24" height="24"><g fill="none" fill-rule="evenodd"><path d="M24 0v24H0V0h24ZM12.593 23.258l-.011.002-.071.035-.02.004-.014-.004-.071-.035c-.01-.004-.019-.001-.024.005l-.004.01-.017.428.005.02.01.013.104.074.015.004.012-.004.104-.074.012-.016.004-.017-.017-.427c-.002-.01-.009-.017-.017-.018Zm.265-.113-.013.002-.185.093-.01.01-.003.011.018.43.005.012.008.007.201.093c.012.004.023 0 .029-.008l.004-.014-.034-.614c-.003-.012-.01-.02-.02-.022Zm-.715.002a.023.023 0 0 0-.027.006l-.006.014-.034.614c0 .012.007.02.017.024l.015-.002.201-.093.01-.008.004-.011.017-.43-.003-.012-.01-.01-.184-.092Z"/><path fill="#09244B" d="M6.272 15.304c1.214.152 2.588.38 3.97.726 2.129.532 3.977 1.582 5.298 2.502l.42.301.38.286.335.266.291.24.348.302c.875.78.223 2.073-.797 2.073H7.922a5 5 0 0 1-3.904-1.876c-.782-.978-1.161-2.195-.55-3.379.495-.958 1.539-1.6 2.804-1.441Zm-1.027 2.358c-.179.348-.059.658.13.94l.135.183.07.09A3 3 0 0 0 7.922 20h6.221c-1.15-.773-2.677-1.603-4.386-2.03a31.86 31.86 0 0 0-3.733-.681c-.4-.05-.653.13-.779.373ZM19 2c.62 0 1.074.338 1.36.704.273.347.45.78.573 1.196.25.843.367 1.927.412 3.009.033.797.027 1.636-.007 2.436l-.035.674c-.028.44-.064.862-.106 1.247l-.067.551c-.047.347-.099.652-.154.9-.533 2.398-1.466 3.847-2.508 4.637-.999.756-2.157.92-2.915.54-.331-.165-.653-.462-.918-.77a5.657 5.657 0 0 1-.802-1.237c-.465-.975-.752-2.293-.282-3.703.291-.873.852-1.417 1.346-1.824l.26-.21c.576-.458 1.114-.928 1.448-1.597.213-.425.218-.98.199-1.503l-.02-.436-.017-.765c-.018-.85-.012-1.727.304-2.511C17.396 2.528 18.117 2 19 2Zm-.23 3.405c-.007.667.027 1.334.01 2.001-.015.642-.075 1.42-.386 2.041-.455.91-1.147 1.596-1.933 2.221l-.169.136-.285.24c-.293.26-.458.47-.559.772-.24.724-.14 1.434.117 2.044l.142.308.102.199c.172.322.425.723.637.722l.075-.003c.133-.011.393-.064.74-.326.074-.057.152-.123.233-.202l.165-.173c.475-.535 1.004-1.478 1.365-3.102.042-.191.084-.436.123-.721l.056-.457c.018-.16.035-.33.05-.508l.043-.55.035-.583.023-.606c.018-.615.018-1.252-.008-1.867-.042-1.027-.151-1.917-.33-2.523-.087-.293-.143-.27-.18-.113l-.02.122-.023.232-.02.486-.003.21ZM5.22 3.375a1 1 0 0 1 1.633 1.147l-.072.103-.233.291a2.16 2.16 0 0 0 .036 2.743l.123.134a4.16 4.16 0 0 1 .439 5.367l-.132.173-.233.292a1 1 0 0 1-1.634-1.147l.072-.103.233-.291a2.16 2.16 0 0 0-.036-2.743l-.123-.134a4.16 4.16 0 0 1-.439-5.367l.132-.173.233-.292Zm4 0a1 1 0 0 1 1.633 1.147l-.072.103-.233.291a2.16 2.16 0 0 0 .036 2.743l.123.134a4.16 4.16 0 0 1 .439 5.367l-.132.173-.233.292a1 1 0 0 1-1.634-1.147l.072-.103.233-.291a2.16 2.16 0 0 0-.036-2.743l-.123-.134a4.16 4.16 0 0 1-.439-5.367l.132-.173.233-.292Z"/></g></svg>
